X:1
T:Title
%%score { ( 1 3 ) | ( 2 4 ) }
L:1/8
Q:1/4=100
M:3/4
K:Ab
V:1 treble nm="Grand Piano"
V:3 treble 
V:2 bass 
V:4 bass 
V:1
 [Ec]2 [EB]2 [EA]2 | [DA]2 [DG]4 | [Gd]2 d2 d2 | c4 z2 | e2 d2 c2 | [FB]2 [DF]4 | %6
w: E.~O.~Sellers * *||||||
 [=DF]2 [DG]2 [DA]2 | [DB]4 z2 | [Ec]2 [EB]2 [EA]2 | [DA]2 [DG]4 | [Gd]2 d2 d2 | c4 z2 | e2 d2 c2 | %13
w: |||||||
 [FB]2 [Fd]4 | c2 G2 B2 | [CA]4 z2 | [CA]2 [Ac]2 [FA]2 | [=EG]6 | A2 [FB]2 [F_c]2 | [=Ec]4 [_Ed]2 | %20
w: |||||||
 [Ec]2 [Ed]2 [_Ge]2 | [Fe]2 [Fd]4 | c2 G2 B2 | A6 |] %24
w: ||||
V:2
 [A,,A,]2 [B,,G,]2 [C,A,]2 | [E,B,]2 [E,B,]4 | [E,B,]2 [F,B,F]2 [G,B,E]2 | [A,E]4 z2 | %4
 [A,CA]2 [A,FA]2 [A,EA]2 | [D,D]2 [D,A,]4 | [B,,A,]2 [B,,G,]2 [B,,F,]2 | [E,G,]4 z2 | %8
 [A,,A,]2 [B,,G,]2 [C,A,]2 | [E,B,]2 [E,B,]4 | [E,B,]2 [F,B,F]2 [G,B,E]2 | [A,E]4 z2 | %12
 [A,CA]2 [A,FA]2 [A,EA]2 | [D,D]2 [D,A,]4 | [E,A,E]2 [E,B,D]2 [E,G,D]2 | [A,,A,]4 z2 | %16
 [F,A,]2 [F,A,]2 [F,C]2 | C4 z2 | [F,A,F]2 [D,A,]2 [D,F,]2 | G,4- [B,,G,]2 | %20
 [A,,A,]2 [B,,G,]2 [C,A,]2 | [D,A,]2 [D,A,]4 | [E,A,E]2 [E,B,D]2 [E,G,D]2 | z2 F,2 E,2 |] %24
V:3
 x6 | x6 | x6 | x6 | x6 | x6 | x6 | x6 | x6 | x6 | x6 | x6 | x6 | x6 | x6 | x6 | x6 | z2 z2 B,2 | %18
 x6 | x6 | x6 | x6 | x6 | [A,C]2 D2 C2 |] %24
V:4
 x6 | x6 | x6 | x6 | x6 | x6 | x6 | x6 | x6 | x6 | x6 | x6 | x6 | x6 | x6 | x6 | x6 | C,6 | x6 | %19
 C,4 z2 | x6 | x6 | x6 | A,,6 |] %24

